X: 1185
T:Captain Dunne's March (A78)
N: page A78
N: heptatonic
R:March
M:4/4
L:1/8
K:D
AF|"D"D2 D>D DFAF | "Em"G2 E>E E3D|"D"FABc dAFD|"A7"A2 A>B AGFE|
"D"D2 D>D DFAF |"Em"G2 E>E E3G |"D"F/2G/2A FD "A7"E/2F/2G EC|"D"D2 D>D D2:|
|:AB/2c/2|"D"d2 d>d dAFD|"Em"G2 E>E E2cd|"A7"e2 e>f edcB|ABcB AGFE|
"D"D2 D>D DFAF|"Em"G2 E>E E3G|"D"F/2G/2A FD "A7"E/2F/2G EC|"D"D2 D>D D2:|
